X: 22
T: Connaughtman's Rambles, The
Z: Denise123
S: https://thesession.org/tunes/19#setting46660
R: jig
M: 6/8
L: 1/8
K: Dmaj
|:A2A BAF|DEF G2A|Bcd edB|AFD D2A|
A2A BAF|DEF G2A|Bcd edB|1 AGF G2A:|2 AGF D2D||
|:F2F A2A|Bcd BAG|F2F A2A|Bcd d2d|
f2f agf|e2e d2d|Bcd edB|1 AGF D2D:|2 AGF G2A||

